P3
20 32
255
255 0 255 255 0 255 255 0 255 255 0 255 255 0 255 255 0 255 255 0 255 255 0 255 255 0 255 255 0 255 255 0 255 255 0 255 255 0 255 255 0 255 255 0 255 255 0 255 255 0 255 255 0 255 255 0 255 255 0 255
255 0 255 255 0 255 255 0 255 255 0 255 255 0 255 255 0 255 255 0 255 255 0 255 255 0 255 255 0 255 255 0 255 255 0 255 255 0 255 255 0 255 255 0 255 255 0 255 255 0 255 255 0 255 255 0 255 255 0 255
255 0 255 255 0 255 255 0 255 52 58 64 255 0 255 255 0 255 255 0 255 255 0 255 255 0 255 255 0 255 255 0 255 255 0 255 255 0 255 255 0 255 255 0 255 255 0 255 52 58 64 255 0 255 255 0 255 255 0 255
255 0 255 255 0 255 255 0 255 52 58 64 255 0 255 255 0 255 255 0 255 255 0 255 255 0 255 255 0 255 255 0 255 255 0 255 255 0 255 255 0 255 255 0 255 255 0 255 52 58 64 255 0 255 255 0 255 255 0 255
255 0 255 255 0 255 255 0 255 52 58 64 255 0 255 255 0 255 255 0 255 255 0 255 255 0 255 255 0 255 255 0 255 255 0 255 255 0 255 255 0 255 255 0 255 255 0 255 52 58 64 255 0 255 255 0 255 255 0 255
255 0 255 255 0 255 255 0 255 52 58 64 76 82 88 76 82 88 76 82 88 76 82 88 76 82 88 76 82 88 76 82 88 76 82 88 76 82 88 76 82 88 76 82 88 76 82 88 52 58 64 255 0 255 255 0 255 255 0 255
255 0 255 255 0 255 255 0 255 52 58 64 130 136 142 130 136 142 130 136 142 255 0 255 255 0 255 255 0 255 255 0 255 255 0 255 255 0 255 255 0 255 255 0 255 255 0 255 52 58 64 255 0 255 255 0 255 255 0 255
255 0 255 255 0 255 255 0 255 52 58 64 255 0 255 130 136 142 130 136 142 130 136 142 255 0 255 255 0 255 255 0 255 255 0 255 255 0 255 255 0 255 255 0 255 255 0 255 52 58 64 255 0 255 255 0 255 255 0 255
255 0 255 255 0 255 255 0 255 52 58 64 255 0 255 255 0 255 255 0 255 130 136 142 130 136 142 130 136 142 255 0 255 255 0 255 255 0 255 255 0 255 255 0 255 255 0 255 52 58 64 255 0 255 255 0 255 255 0 255
255 0 255 255 0 255 255 0 255 52 58 64 255 0 255 255 0 255 255 0 255 255 0 255 130 136 142 130 136 142 130 136 142 255 0 255 255 0 255 255 0 255 255 0 255 255 0 255 52 58 64 255 0 255 255 0 255 255 0 255
255 0 255 255 0 255 255 0 255 52 58 64 255 0 255 255 0 255 255 0 255 255 0 255 255 0 255 130 136 142 130 136 142 130 136 142 255 0 255 255 0 255 255 0 255 255 0 255 52 58 64 255 0 255 255 0 255 255 0 255
255 0 255 255 0 255 255 0 255 52 58 64 255 0 255 255 0 255 255 0 255 255 0 255 255 0 255 255 0 255 255 0 255 130 136 142 130 136 142 130 136 142 255 0 255 255 0 255 52 58 64 255 0 255 255 0 255 255 0 255
255 0 255 255 0 255 255 0 255 52 58 64 255 0 255 255 0 255 255 0 255 255 0 255 255 0 255 255 0 255 255 0 255 255 0 255 130 136 142 130 136 142 130 136 142 255 0 255 52 58 64 255 0 255 255 0 255 255 0 255
255 0 255 255 0 255 255 0 255 52 58 64 255 0 255 255 0 255 255 0 255 255 0 255 255 0 255 255 0 255 255 0 255 255 0 255 255 0 255 130 136 142 130 136 142 130 136 142 52 58 64 255 0 255 255 0 255 255 0 255
255 0 255 255 0 255 255 0 255 52 58 64 76 82 88 76 82 88 76 82 88 76 82 88 76 82 88 76 82 88 76 82 88 76 82 88 76 82 88 76 82 88 76 82 88 76 82 88 52 58 64 130 136 142 255 0 255 255 0 255
255 0 255 255 0 255 255 0 255 52 58 64 255 0 255 255 0 255 255 0 255 255 0 255 255 0 255 255 0 255 255 0 255 255 0 255 255 0 255 255 0 255 130 136 142 130 136 142 52 58 64 255 0 255 255 0 255 255 0 255
255 0 255 255 0 255 255 0 255 52 58 64 255 0 255 255 0 255 255 0 255 255 0 255 255 0 255 255 0 255 255 0 255 255 0 255 255 0 255 130 136 142 130 136 142 130 136 142 52 58 64 255 0 255 255 0 255 255 0 255
255 0 255 255 0 255 255 0 255 52 58 64 255 0 255 255 0 255 255 0 255 255 0 255 255 0 255 255 0 255 255 0 255 130 136 142 130 136 142 130 136 142 255 0 255 255 0 255 52 58 64 255 0 255 255 0 255 255 0 255
255 0 255 255 0 255 255 0 255 52 58 64 255 0 255 255 0 255 255 0 255 255 0 255 255 0 255 255 0 255 130 136 142 130 136 142 130 136 142 255 0 255 255 0 255 255 0 255 52 58 64 255 0 255 255 0 255 255 0 255
255 0 255 255 0 255 255 0 255 52 58 64 255 0 255 255 0 255 255 0 255 255 0 255 255 0 255 130 136 142 130 136 142 130 136 142 255 0 255 255 0 255 255 0 255 255 0 255 52 58 64 255 0 255 255 0 255 255 0 255
255 0 255 255 0 255 255 0 255 52 58 64 255 0 255 255 0 255 255 0 255 130 136 142 130 136 142 130 136 142 255 0 255 255 0 255 255 0 255 255 0 255 255 0 255 255 0 255 52 58 64 255 0 255 255 0 255 255 0 255
255 0 255 255 0 255 255 0 255 52 58 64 255 0 255 255 0 255 130 136 142 130 136 142 130 136 142 255 0 255 255 0 255 255 0 255 255 0 255 255 0 255 255 0 255 255 0 255 52 58 64 255 0 255 255 0 255 255 0 255
255 0 255 255 0 255 255 0 255 52 58 64 255 0 255 130 136 142 130 136 142 130 136 142 255 0 255 255 0 255 255 0 255 255 0 255 255 0 255 255 0 255 255 0 255 255 0 255 52 58 64 255 0 255 255 0 255 255 0 255
255 0 255 255 0 255 255 0 255 52 58 64 76 82 88 76 82 88 76 82 88 76 82 88 76 82 88 76 82 88 76 82 88 76 82 88 76 82 88 76 82 88 76 82 88 76 82 88 52 58 64 255 0 255 255 0 255 255 0 255
255 0 255 255 0 255 255 0 255 52 58 64 130 136 142 130 136 142 130 136 142 255 0 255 255 0 255 255 0 255 255 0 255 255 0 255 255 0 255 255 0 255 255 0 255 255 0 255 52 58 64 255 0 255 255 0 255 255 0 255
255 0 255 255 0 255 255 0 255 52 58 64 255 0 255 255 0 255 130 136 142 130 136 142 130 136 142 255 0 255 255 0 255 255 0 255 255 0 255 255 0 255 255 0 255 255 0 255 52 58 64 255 0 255 255 0 255 255 0 255
255 0 255 255 0 255 255 0 255 52 58 64 255 0 255 255 0 255 255 0 255 255 0 255 130 136 142 130 136 142 130 136 142 255 0 255 255 0 255 255 0 255 255 0 255 255 0 255 52 58 64 255 0 255 255 0 255 255 0 255
255 0 255 255 0 255 255 0 255 52 58 64 255 0 255 255 0 255 255 0 255 255 0 255 255 0 255 130 136 142 130 136 142 130 136 142 255 0 255 255 0 255 255 0 255 255 0 255 52 58 64 255 0 255 255 0 255 255 0 255
255 0 255 255 0 255 255 0 255 52 58 64 255 0 255 255 0 255 255 0 255 255 0 255 255 0 255 255 0 255 255 0 255 130 136 142 130 136 142 130 136 142 255 0 255 255 0 255 52 58 64 255 0 255 255 0 255 255 0 255
255 0 255 255 0 255 255 0 255 52 58 64 255 0 255 255 0 255 255 0 255 255 0 255 255 0 255 255 0 255 255 0 255 255 0 255 255 0 255 130 136 142 130 136 142 130 136 142 52 58 64 255 0 255 255 0 255 255 0 255
255 0 255 255 0 255 255 0 255 52 58 64 76 82 88 76 82 88 76 82 88 76 82 88 76 82 88 76 82 88 76 82 88 76 82 88 76 82 88 76 82 88 76 82 88 76 82 88 52 58 64 130 136 142 255 0 255 255 0 255
255 0 255 255 0 255 255 0 255 255 0 255 255 0 255 255 0 255 255 0 255 255 0 255 255 0 255 255 0 255 255 0 255 255 0 255 255 0 255 255 0 255 255 0 255 255 0 255 255 0 255 255 0 255 255 0 255 255 0 255
