P3
24 24
255
255 0 255 255 0 255 255 0 255 255 0 255 255 0 255 255 0 255 255 0 255 255 0 255 255 0 255 255 0 255 255 0 255 255 0 255 255 0 255 255 0 255 255 0 255 255 0 255 255 0 255 255 0 255 255 0 255 255 0 255 255 0 255 255 0 255 255 0 255 255 0 255
255 0 255 255 0 255 255 0 255 255 0 255 255 0 255 255 0 255 255 0 255 255 0 255 255 0 255 255 0 255 255 0 255 255 0 255 255 0 255 255 0 255 255 0 255 255 0 255 255 0 255 255 0 255 255 0 255 255 0 255 255 0 255 255 0 255 255 0 255 255 0 255
255 0 255 255 0 255 42 48 54 42 48 54 42 48 54 42 48 54 42 48 54 42 48 54 42 48 54 42 48 54 42 48 54 42 48 54 42 48 54 42 48 54 42 48 54 42 48 54 42 48 54 42 48 54 42 48 54 42 48 54 42 48 54 42 48 54 255 0 255 255 0 255
255 0 255 255 0 255 42 48 54 64 70 76 64 70 76 112 118 124 64 70 76 64 70 76 64 70 76 64 70 76 64 70 76 64 70 76 64 70 76 64 70 76 64 70 76 64 70 76 64 70 76 64 70 76 112 118 124 64 70 76 64 70 76 42 48 54 255 0 255 255 0 255
255 0 255 255 0 255 42 48 54 64 70 76 64 70 76 112 118 124 64 70 76 64 70 76 64 70 76 64 70 76 64 70 76 64 70 76 64 70 76 64 70 76 64 70 76 64 70 76 64 70 76 64 70 76 112 118 124 64 70 76 64 70 76 42 48 54 255 0 255 255 0 255
255 0 255 255 0 255 42 48 54 112 118 124 112 118 124 112 118 124 112 118 124 112 118 124 112 118 124 112 118 124 112 118 124 112 118 124 112 118 124 112 118 124 112 118 124 112 118 124 112 118 124 112 118 124 112 118 124 112 118 124 112 118 124 42 48 54 255 0 255 255 0 255
255 0 255 255 0 255 42 48 54 64 70 76 64 70 76 112 118 124 64 70 76 64 70 76 64 70 76 64 70 76 64 70 76 64 70 76 64 70 76 64 70 76 64 70 76 64 70 76 64 70 76 64 70 76 112 118 124 64 70 76 64 70 76 42 48 54 255 0 255 255 0 255
255 0 255 255 0 255 42 48 54 64 70 76 64 70 76 112 118 124 64 70 76 64 70 76 64 70 76 64 70 76 64 70 76 64 70 76 64 70 76 64 70 76 64 70 76 64 70 76 64 70 76 64 70 76 112 118 124 64 70 76 64 70 76 42 48 54 255 0 255 255 0 255
255 0 255 255 0 255 42 48 54 64 70 76 64 70 76 112 118 124 64 70 76 64 70 76 72 78 84 72 78 84 72 78 84 72 78 84 72 78 84 72 78 84 72 78 84 72 78 84 64 70 76 64 70 76 112 118 124 64 70 76 64 70 76 42 48 54 255 0 255 255 0 255
255 0 255 255 0 255 42 48 54 64 70 76 64 70 76 112 118 124 64 70 76 64 70 76 184 190 196 184 190 196 184 190 196 184 190 196 184 190 196 184 190 196 184 190 196 184 190 196 64 70 76 64 70 76 112 118 124 64 70 76 64 70 76 42 48 54 255 0 255 255 0 255
255 0 255 255 0 255 42 48 54 64 70 76 64 70 76 112 118 124 64 70 76 64 70 76 72 78 84 72 78 84 72 78 84 72 78 84 72 78 84 72 78 84 72 78 84 72 78 84 64 70 76 64 70 76 112 118 124 64 70 76 64 70 76 42 48 54 255 0 255 255 0 255
255 0 255 255 0 255 42 48 54 64 70 76 64 70 76 112 118 124 64 70 76 64 70 76 72 78 84 72 78 84 72 78 84 72 78 84 72 78 84 72 78 84 72 78 84 72 78 84 64 70 76 64 70 76 112 118 124 64 70 76 64 70 76 42 48 54 255 0 255 255 0 255
255 0 255 255 0 255 42 48 54 64 70 76 64 70 76 112 118 124 64 70 76 64 70 76 184 190 196 184 190 196 184 190 196 184 190 196 184 190 196 184 190 196 184 190 196 184 190 196 64 70 76 64 70 76 112 118 124 64 70 76 64 70 76 42 48 54 255 0 255 255 0 255
255 0 255 255 0 255 42 48 54 64 70 76 64 70 76 112 118 124 64 70 76 64 70 76 72 78 84 72 78 84 72 78 84 72 78 84 72 78 84 72 78 84 72 78 84 72 78 84 64 70 76 64 70 76 112 118 124 64 70 76 64 70 76 42 48 54 255 0 255 255 0 255
255 0 255 255 0 255 42 48 54 64 70 76 64 70 76 112 118 124 64 70 76 64 70 76 72 78 84 72 78 84 72 78 84 72 78 84 72 78 84 72 78 84 72 78 84 72 78 84 64 70 76 64 70 76 112 118 124 64 70 76 64 70 76 42 48 54 255 0 255 255 0 255
255 0 255 255 0 255 42 48 54 64 70 76 64 70 76 112 118 124 64 70 76 64 70 76 184 190 196 184 190 196 184 190 196 184 190 196 184 190 196 184 190 196 184 190 196 184 190 196 64 70 76 64 70 76 112 118 124 64 70 76 64 70 76 42 48 54 255 0 255 255 0 255
255 0 255 255 0 255 42 48 54 64 70 76 64 70 76 112 118 124 64 70 76 64 70 76 64 70 76 64 70 76 64 70 76 64 70 76 64 70 76 64 70 76 64 70 76 64 70 76 64 70 76 64 70 76 112 118 124 64 70 76 64 70 76 42 48 54 255 0 255 255 0 255
255 0 255 255 0 255 42 48 54 64 70 76 64 70 76 112 118 124 64 70 76 64 70 76 64 70 76 64 70 76 64 70 76 64 70 76 64 70 76 64 70 76 64 70 76 64 70 76 64 70 76 64 70 76 112 118 124 64 70 76 64 70 76 42 48 54 255 0 255 255 0 255
255 0 255 255 0 255 42 48 54 112 118 124 112 118 124 112 118 124 112 118 124 112 118 124 112 118 124 112 118 124 112 118 124 112 118 124 112 118 124 112 118 124 112 118 124 112 118 124 112 118 124 112 118 124 112 118 124 112 118 124 112 118 124 42 48 54 255 0 255 255 0 255
255 0 255 255 0 255 42 48 54 64 70 76 64 70 76 112 118 124 64 70 76 64 70 76 64 70 76 64 70 76 64 70 76 64 70 76 64 70 76 64 70 76 64 70 76 64 70 76 64 70 76 64 70 76 112 118 124 64 70 76 64 70 76 42 48 54 255 0 255 255 0 255
255 0 255 255 0 255 42 48 54 64 70 76 64 70 76 112 118 124 64 70 76 64 70 76 64 70 76 64 70 76 64 70 76 64 70 76 64 70 76 64 70 76 64 70 76 64 70 76 64 70 76 64 70 76 112 118 124 64 70 76 64 70 76 42 48 54 255 0 255 255 0 255
255 0 255 255 0 255 42 48 54 42 48 54 42 48 54 42 48 54 42 48 54 42 48 54 42 48 54 42 48 54 42 48 54 42 48 54 42 48 54 42 48 54 42 48 54 42 48 54 42 48 54 42 48 54 42 48 54 42 48 54 42 48 54 42 48 54 255 0 255 255 0 255
255 0 255 255 0 255 255 0 255 255 0 255 255 0 255 255 0 255 255 0 255 255 0 255 255 0 255 255 0 255 255 0 255 255 0 255 255 0 255 255 0 255 255 0 255 255 0 255 255 0 255 255 0 255 255 0 255 255 0 255 255 0 255 255 0 255 255 0 255 255 0 255
255 0 255 255 0 255 255 0 255 255 0 255 255 0 255 255 0 255 255 0 255 255 0 255 255 0 255 255 0 255 255 0 255 255 0 255 255 0 255 255 0 255 255 0 255 255 0 255 255 0 255 255 0 255 255 0 255 255 0 255 255 0 255 255 0 255 255 0 255 255 0 255
