P3
16 24
255
255 0 255 255 0 255 255 0 255 255 0 255 255 0 255 255 0 255 255 0 255 255 0 255 255 0 255 255 0 255 255 0 255 255 0 255 255 0 255 255 0 255 255 0 255 255 0 255
255 0 255 255 0 255 255 0 255 255 0 255 255 0 255 255 0 255 255 0 255 255 0 255 255 0 255 255 0 255 255 0 255 255 0 255 255 0 255 255 0 255 255 0 255 255 0 255
255 0 255 255 0 255 48 36 32 48 36 32 48 36 32 48 36 32 48 36 32 48 36 32 48 36 32 48 36 32 48 36 32 48 36 32 48 36 32 48 36 32 255 0 255 255 0 255
255 0 255 255 0 255 48 36 32 255 0 255 255 0 255 255 0 255 255 0 255 255 0 255 255 0 255 255 0 255 255 0 255 255 0 255 255 0 255 48 36 32 255 0 255 255 0 255
255 0 255 255 0 255 48 36 32 255 0 255 148 76 46 148 76 46 148 76 46 148 76 46 116 58 38 116 58 38 116 58 38 116 58 38 255 0 255 48 36 32 255 0 255 255 0 255
255 0 255 255 0 255 48 36 32 255 0 255 148 76 46 148 76 46 148 76 46 148 76 46 116 58 38 116 58 38 116 58 38 116 58 38 255 0 255 48 36 32 255 0 255 255 0 255
255 0 255 255 0 255 48 36 32 255 0 255 148 76 46 148 76 46 148 76 46 148 76 46 116 58 38 116 58 38 116 58 38 116 58 38 255 0 255 48 36 32 255 0 255 255 0 255
255 0 255 255 0 255 48 36 32 255 0 255 148 76 46 148 76 46 148 76 46 148 76 46 116 58 38 116 58 38 116 58 38 116 58 38 255 0 255 48 36 32 255 0 255 255 0 255
255 0 255 255 0 255 48 36 32 255 0 255 148 76 46 148 76 46 148 76 46 148 76 46 116 58 38 116 58 38 116 58 38 116 58 38 255 0 255 48 36 32 255 0 255 255 0 255
255 0 255 255 0 255 48 36 32 255 0 255 148 76 46 148 76 46 148 76 46 148 76 46 116 58 38 116 58 38 116 58 38 116 58 38 255 0 255 48 36 32 255 0 255 255 0 255
255 0 255 255 0 255 48 36 32 255 0 255 148 76 46 148 76 46 148 76 46 148 76 46 116 58 38 116 58 38 116 58 38 116 58 38 255 0 255 48 36 32 255 0 255 255 0 255
255 0 255 255 0 255 48 36 32 255 0 255 148 76 46 148 76 46 148 76 46 148 76 46 116 58 38 116 58 38 116 58 38 116 58 38 255 0 255 48 36 32 255 0 255 255 0 255
255 0 255 255 0 255 48 36 32 255 0 255 148 76 46 148 76 46 148 76 46 148 76 46 116 58 38 116 58 38 116 58 38 116 58 38 255 0 255 48 36 32 255 0 255 255 0 255
255 0 255 255 0 255 48 36 32 255 0 255 148 76 46 148 76 46 148 76 46 148 76 46 116 58 38 116 58 38 236 202 82 116 58 38 255 0 255 48 36 32 255 0 255 255 0 255
255 0 255 255 0 255 48 36 32 255 0 255 148 76 46 148 76 46 148 76 46 148 76 46 116 58 38 116 58 38 116 58 38 116 58 38 255 0 255 48 36 32 255 0 255 255 0 255
255 0 255 255 0 255 48 36 32 255 0 255 148 76 46 148 76 46 148 76 46 148 76 46 116 58 38 116 58 38 116 58 38 116 58 38 255 0 255 48 36 32 255 0 255 255 0 255
255 0 255 255 0 255 48 36 32 255 0 255 148 76 46 148 76 46 148 76 46 148 76 46 116 58 38 116 58 38 116 58 38 116 58 38 255 0 255 48 36 32 255 0 255 255 0 255
255 0 255 255 0 255 48 36 32 255 0 255 148 76 46 148 76 46 148 76 46 148 76 46 116 58 38 116 58 38 116 58 38 116 58 38 255 0 255 48 36 32 255 0 255 255 0 255
255 0 255 255 0 255 48 36 32 255 0 255 148 76 46 148 76 46 148 76 46 148 76 46 116 58 38 116 58 38 116 58 38 116 58 38 255 0 255 48 36 32 255 0 255 255 0 255
255 0 255 255 0 255 48 36 32 255 0 255 148 76 46 148 76 46 148 76 46 148 76 46 116 58 38 116 58 38 116 58 38 116 58 38 255 0 255 48 36 32 255 0 255 255 0 255
255 0 255 255 0 255 48 36 32 255 0 255 148 76 46 148 76 46 148 76 46 148 76 46 116 58 38 116 58 38 116 58 38 116 58 38 255 0 255 48 36 32 255 0 255 255 0 255
255 0 255 255 0 255 48 36 32 255 0 255 148 76 46 148 76 46 148 76 46 148 76 46 116 58 38 116 58 38 116 58 38 116 58 38 255 0 255 48 36 32 255 0 255 255 0 255
255 0 255 255 0 255 48 36 32 255 0 255 148 76 46 148 76 46 148 76 46 148 76 46 116 58 38 116 58 38 116 58 38 116 58 38 255 0 255 48 36 32 255 0 255 255 0 255
255 0 255 255 0 255 48 36 32 255 0 255 148 76 46 148 76 46 148 76 46 148 76 46 116 58 38 116 58 38 116 58 38 116 58 38 255 0 255 48 36 32 255 0 255 255 0 255
